X:187
T:Summer Vacation Reel
R:reel
C:Bruce Osborne  -- July 1991
Z:abc by bosborne@kos.net
M:2/4
L:1/8
K:F
c/B/|A/F/A/c/ fe/g/|f/c/A/G/ FE/F/|G/F/G/A/ B/A/B/d/|c/d/c/B/ Ac/B/|\
A/F/A/c/ fe/g/|f/c/A/G/ FE/F/|G/F/G/A/ B/A/B/d/|c/A/G/E/ F:|
|:A/c/|f/e/f/g/ f/c/A/A,/|B,/D/F/B/ d (3g/f/e/|c/f/e/f/ a/f/e/f/|c/f/e/f/ ga/g/|\
f/e/f/g/ f/c/A/A,/|B,/D/F/B/ d (3g/f/e/|c/f/e/f/ a/f/e/f/|c/A/G/E/ F:|
